X:1
T:Madre divina
T:André Vierendeels
T:Source : Melody in Tenor voice from "Corona di Sacre canzoni o Laude spirituali" Firenze---Eredi Francesco Orofri---1689. Editor : André Vierendeels (07/12/17). Notes : Original clef : C4, other voices supplied editorially Editorial accidentals above the staff Music compiled by Matteo Coferati               
T:Madre divina
T:©
T:©
C:André Vierendeels
Z:©
%%score [ 1 2 3 ]
L:1/8
Q:1/4=85
M:4/4
K:C
V:1 treble nm="Soprano" snm="S"
V:2 treble nm="Alto" snm="A"
V:3 treble-8 nm="Tenor" snm="T"
V:1
"^1)" A4 A2 c2 | G2 B2 d2 c2 | c2 d2 d4 | B4 A4 | A2 c2 G2 B2 | d2 c2 c2 d2 | d4 B4 :: c3 B A3 c | %8
w: Ma- dre di-|vi- na del Ciel|Re- * gi-|na, Sol|do- po Di- o|re- fu- gi- o|mi- o,|Ab- * bi pie-|
w: Tu'l pec- ca-|to- re, pie- na|d'a- * mo-|re, be-|ni- gna mi- ri,|dal mal ri- *|ti- ri,|Poi lo con- du-|
 d3 d e3 B | F2 D2 G2 A2 | G2 ^F2 !fermata!G4 :| %11
w: ta di me, ch'u-|mil _ _ ti-|cor- ro'a te.|
w: ci su nel Ciel|do- * * *|ve sei tu.|
V:2
"^2)""^1)" F4 E2 F2 | D2 G4 A2 | E2 DG ^F4 |"^-natural" D4 F4 | E2 E2 D2 G2- | G2 A2 E2 DG | %6
w: Ma- dre di-|vi- na del|Ciel Re- * gi-|na, Sol|do- po Di- o|_ re- fu- gi- o|
w: O del Mar|Stel- la lu|cen- t'e _ bel-|la, ve-|di me im- mon-|* do del Mar del|
 ^F4 D4 :: E4 E3 A | G3 G c3 G | F2 D2 B,2 ^C2 | D4 !fermata!B,4 :| %11
w: mi- o,|Ab- bi pie-|ta di me, ch'u-|mil _ ri- cor-|ro'a te.|
w: Mon- do.|Qua- si som-|mer- so già, dun-|que a- iu- to|mi dà.|
V:3
"^3)""^1)""^4)" d4 c2 c2 | B4 B2 A2 | A2 GB A4 | G4 d4 | c2 c2 B4 | B2 A2 A2 GB | A4 G4 :: %7
w: Ma- dre di-|vi- na del|Ciel Re- * gi-|na, Sol|do- po Di-|o re- fu- gi- o|mi- o,|
w: Pre- ga'l mio|Di- o, tuo|Fi- gli- uol pi-|o, che'i|miei pec- ca-|ti sien per- do- *|na- ti,|
 A2 c2 c3 c | B3 B A3 B | d6 A2 | A3 G !fermata!G4 :| %11
w: Ab- * bi pie-|ta di me, ch'u-|mil ri|cor- ro'a te.|
w: Ed io, quan- to|por- ro, Lui con|te lo-|de- * ro.|

